X: 1389
T: The Flax In Bloom
M:C|
L:1/8
N:"collected by J. O'Neill"
B:O'Neill's 1389
Z:"Transcribed by Bob Safranek, rjs@gsp.org"
K:D
D2 ((3FED) FAAf | ((3gfe) ((3fed) edBd | ((3ABA) (FA) dfaf  | (ga)fd (ed)Bd  |
D2 ((3FED) FAAf | ((3gfe) ((3fed) edBd | (AB)AF      (AB)de | (fa)eg (fd) d2 ||
((3fgf) df ((3efe) ce | dcdB AGFG | DFAd FAdf | ((3gfe) ((3fed) edBd |
((3fgf) df ((3efe) ce | dcdB AGFA | DFAc defg | (ag)eg       (fd) d2 |]


